icons/round/image/ic_grid_on_24px.svg

<svg xmlns="http://www.w3.org/2000/svg" height="24" viewBox="0 0 24 24" width="24"><path d="M0 0h24v24H0V0z" fill="none"/><path d="M20 2H4c-1.1 0-2 .9-2 2v16c0 1.1.9 2 2 2h16c1.1 0 2-.9 2-2V4c0-1.1-.9-2-2-2zM8 20H5c-.55 0-1-.45-1-1v-3h4v4zm0-6H4v-4h4v4zm0-6H4V5c0-.55.45-1 1-1h3v4zm6 12h-4v-4h4v4zm0-6h-4v-4h4v4zm0-6h-4V4h4v4zm5 12h-3v-4h4v3c0 .55-.45 1-1 1zm1-6h-4v-4h4v4zm0-6h-4V4h3c.55 0 1 .45 1 1v3z"/></svg>

<svg xmlns="http://www.w3.org/2000/svg" enable-background="new 0 0 24 24" height="24" viewBox="0 0 24 24" width="24"><g><rect fill="none" height="24" width="24"/></g><g><g><g><path d="M20,2H4C2.9,2,2,2.9,2,4v16c0,1.1,0.9,2,2,2h16c1.1,0,2-0.9,2-2V4C22,2.9,21.1,2,20,2z M8,20H4v-4h4V20z M8,14H4v-4h4V14 z M8,8H4V4h4V8z M14,20h-4v-4h4V20z M14,14h-4v-4h4V14z M14,8h-4V4h4V8z M20,20h-4v-4h4V20z M20,14h-4v-4h4V14z M20,8h-4V4h4V8z"/></g></g></g></svg>
